X:862
T:Scotland
C:Bill Monroe
S:Fiddle Fever, Radio Scotland 1992
Z:Nigel Gatherer
L:1/8
M:4/4
K:A
AB | c2 Ac d2 cd | e2 c2 B2 AB | c2 Ac d2 cd | ecdB A2 :|
z2 | e a2 g a2 ef | =gfed A2 A2 | e a2 g a2 ef | =g2 f2 e2 |
e a2 g a2 ef | =gfed A2 AB | c2 Ac d2 cd | ecdB A2 :|
[A,6E6A6] (3Bcd | e2 c2 B2 A2 | [A,6E6A6] (3Bcd | e2 c2 B4 |
[A,6E6A6] (3Bcd | e2 c2 B2 A2 | [A,6E6A6] (3Bcd | ecdB A2 :|
<end>
<start>
